X:78
T:Morgiana in Ireland. JGi.078
O:Tealby,Lincolnshire
N:No final bar line visible in MS.
N:Morgiana was a captured French warship (l’Actif)
N:which went to Ireland to recruit sailors in 1803.
N:Also the name of an Irish Hurdle race.
M:6/8
L:1/8
Q:3/8=120
S:Joshua Gibbons MS,1823,Tealby,Lincs.
R:Jig
Z:VMP/R.Greig, 2009
K:C
G2Gc2c|dcde2A|A2Ac2d|e2f ecA|
G2Gc2c|dcde2a|agf efd|c2d ecA|
g2g gfe|a2bc’3|gag gfe|a2b c’ge|
gag gfe|aba abc’|gaf efd|c2c ecA|
AGA c<ez|BcB d<fz|cdce2f|e2f ecA|
ABA c<ez|d<f zc<ez|a<c’ ze<gz|c2d ecA|]

